svg/wood1.svg

<?xml version="1.0" encoding="UTF-8" standalone="no"?>
<!-- Created with Inkscape (http://www.inkscape.org/) -->

<svg
   width="32"
   height="32"
   viewBox="0 0 8.4666666 8.4666668"
   version="1.1"
   id="svg5"
   inkscape:version="1.1.2 (b8e25be8, 2022-02-05)"
   sodipodi:docname="wood1.svg"
   xmlns:inkscape="http://www.inkscape.org/namespaces/inkscape"
   xmlns:sodipodi="http://sodipodi.sourceforge.net/DTD/sodipodi-0.dtd"
   xmlns="http://www.w3.org/2000/svg"
   xmlns:svg="http://www.w3.org/2000/svg"
   xmlns:rdf="http://www.w3.org/1999/02/22-rdf-syntax-ns#"
   xmlns:cc="http://creativecommons.org/ns#">
  <sodipodi:namedview
     id="namedview7"
     pagecolor="#ffffff"
     bordercolor="#111111"
     borderopacity="1"
     inkscape:pageshadow="0"
     inkscape:pageopacity="0"
     inkscape:pagecheckerboard="1"
     inkscape:document-units="mm"
     showgrid="true"
     width="32mm"
     units="px"
     objecttolerance="10000"
     guidetolerance="10000"
     inkscape:snap-perpendicular="true"
     inkscape:snap-tangential="true"
     inkscape:zoom="34.90625"
     inkscape:cx="7.4341987"
     inkscape:cy="16"
     inkscape:window-width="2560"
     inkscape:window-height="1301"
     inkscape:window-x="0"
     inkscape:window-y="25"
     inkscape:window-maximized="0"
     inkscape:current-layer="layer1">
    <inkscape:grid
       type="xygrid"
       id="grid9"
       units="px"
       empspacing="2" />
  </sodipodi:namedview>
  <defs
     id="defs2" />
  <g
     inkscape:label="Layer 1"
     inkscape:groupmode="layer"
     id="layer1">
    <path
       id="path3662"
       style="fill:#000000;fill-opacity:1;stroke:none;stroke-width:0.999999"
       d="M 0 0 L 0 10 A 3.9999995 5.9999996 0 0 1 4 16 A 3.9999995 5.9999996 0 0 1 0 22 L 0 26 L 0 32 L 2 32 L 2 25.681641 A 7.9999994 9.9999995 0 0 0 8 16 A 7.9999994 9.9999995 0 0 0 2 6.3183594 L 2 0 L 0 0 z "
       transform="scale(0.26458333)" />
    <path
       id="path4932"
       style="fill:#000000;fill-opacity:1;stroke:none;stroke-width:0.264583"
       d="m 8.466667,0 v 2.6458333 a 1.0583332,1.5874999 0 0 0 -1.0583333,1.5875 1.0583332,1.5874999 0 0 0 1.0583333,1.5875 v 1.0583333 1.5875 H 7.9375004 V 6.7949341 A 2.1166665,2.6458332 0 0 1 6.3500003,4.2333333 2.1166665,2.6458332 0 0 1 7.9375004,1.6717326 V 0 Z" />
    <path
       id="path4956"
       style="fill:#000000;fill-opacity:1;stroke:none;stroke-width:0.999999"
       d="M 8 30 A 1.9999999 1.9999999 0 0 0 6 32 L 10 32 A 1.9999999 1.9999999 0 0 0 8 30 z "
       transform="scale(0.26458333)" />
    <path
       id="path5387"
       style="fill:#000000;fill-opacity:1;stroke:none;stroke-width:0.264583"
       d="M 4.2333334,7.9374999 A 0.52916663,0.52916663 0 0 0 3.7041667,8.4666666 H 4.7625001 A 0.52916663,0.52916663 0 0 0 4.2333334,7.9374999 Z" />
    <path
       id="path5389"
       style="fill:#000000;fill-opacity:1;stroke:none;stroke-width:0.264583"
       d="M 6.3500002,7.9374999 A 0.52916663,0.52916663 0 0 0 5.8208335,8.4666666 H 6.8791669 A 0.52916663,0.52916663 0 0 0 6.3500002,7.9374999 Z" />
    <path
       id="path5391"
       style="fill:#000000;fill-opacity:1;stroke:none;stroke-width:0.264583"
       d="M 2.1166666,0.52916613 A 0.52916663,0.52916663 0 0 1 1.5875,-5.3666667e-7 H 2.6458333 A 0.52916663,0.52916663 0 0 1 2.1166666,0.52916613 Z" />
    <path
       id="path5393"
       style="fill:#000000;fill-opacity:1;stroke:none;stroke-width:0.264583"
       d="M 4.2333334,0.52916613 A 0.52916663,0.52916663 0 0 1 3.7041667,-5.3666667e-7 H 4.7625001 A 0.52916663,0.52916663 0 0 1 4.2333334,0.52916613 Z" />
    <path
       id="path5395"
       style="fill:#000000;fill-opacity:1;stroke:none;stroke-width:0.264583"
       d="M 6.3500002,0.52916613 A 0.52916663,0.52916663 0 0 1 5.8208335,-5.3666667e-7 H 6.8791669 A 0.52916663,0.52916663 0 0 1 6.3500002,0.52916613 Z" />
  </g>
  <metadata
     id="metadata33">
    <rdf:RDF>
      <cc:Work
         rdf:about="">
        <cc:license
           rdf:resource="http://creativecommons.org/licenses/by-sa/4.0/" />
      </cc:Work>
      <cc:License
         rdf:about="http://creativecommons.org/licenses/by-sa/4.0/">
        <cc:permits
           rdf:resource="http://creativecommons.org/ns#Reproduction" />
        <cc:permits
           rdf:resource="http://creativecommons.org/ns#Distribution" />
        <cc:requires
           rdf:resource="http://creativecommons.org/ns#Notice" />
        <cc:requires
           rdf:resource="http://creativecommons.org/ns#Attribution" />
        <cc:permits
           rdf:resource="http://creativecommons.org/ns#DerivativeWorks" />
        <cc:requires
           rdf:resource="http://creativecommons.org/ns#ShareAlike" />
      </cc:License>
    </rdf:RDF>
  </metadata>
</svg>

<svg width="32" height="32" viewBox="0 0 8.467 8.467" xmlns="http://www.w3.org/2000/svg"><path style="fill:#000;fill-opacity:1;stroke:none;stroke-width:.999999" d="M0 0v10a4 6 0 0 1 4 6 4 6 0 0 1-4 6v10h2v-6.318A8 10 0 0 0 8 16a8 10 0 0 0-6-9.682V0H0z" transform="scale(.26458)"/><path style="fill:#000;fill-opacity:1;stroke:none;stroke-width:.264583" d="M8.467 0v2.646a1.058 1.587 0 0 0-1.059 1.587 1.058 1.587 0 0 0 1.059 1.588v2.646h-.53V6.795A2.117 2.646 0 0 1 6.35 4.233a2.117 2.646 0 0 1 1.588-2.561V0Z"/><path style="fill:#000;fill-opacity:1;stroke:none;stroke-width:.999999" d="M8 30a2 2 0 0 0-2 2h4a2 2 0 0 0-2-2z" transform="scale(.26458)"/><path style="fill:#000;fill-opacity:1;stroke:none;stroke-width:.264583" d="M4.233 7.937a.53.53 0 0 0-.529.53h1.059a.53.53 0 0 0-.53-.53ZM6.35 7.937a.53.53 0 0 0-.53.53h1.06a.53.53 0 0 0-.53-.53ZM2.117.53a.53.53 0 0 1-.53-.53h1.059a.53.53 0 0 1-.53.53ZM4.233.53A.53.53 0 0 1 3.704 0h1.059a.53.53 0 0 1-.53.53ZM6.35.53A.53.53 0 0 1 5.82 0h1.06a.53.53 0 0 1-.53.53Z"/></svg>
